X:21076 
T:HEATHER BREEZE (reel), The
B:DMI.0779
Z:Nordberg/Black
N:I've never heard anyone play the third part.
R:reel
%Q:1/4=180
M:C
L:1/8
K:G
F|DGBG dGBG|DFAF cFAF|DGBG dGBG|BdcA BGGF|
DGBG dGBG|DFAF cFAF|GABc d2ge|fdcA BGG||
%
f|g2gf gbag|f2fe fgaf|g2gf gbag|fdcA BGGf|
g2gf gbag|f2fe fgaf|gfga b2ag|fdcA BGG||
%
g|bgdg bagb|afdf agfa|bgdg bgag|fdcA BGGg|
bgdg bgdg|afdf agfa|bgaf gedB|cedc BGG|]


%%%

